!!!COM: Anon.
!!!OTL: Ortus Summi
!!!SCA: Folio 218-218'
!!!YOR: from 'Thirty-Five Conductus for Two and Three Voices', pp.22-24
!!!YOR: edited by Janet Knapp, Collegium Musicum No. 6, Yale University (1965)
!!!YOR: from the School of Notre Dame; circa 1170-1240
!!!YOO: Yale University
!!!YOY: 1965
!! NOTE: Irregular meter (6/8 and 9/8).
**kern	**kern	**kern
*M6/8	*M6/8	*M6/8
=1	=1	=1
2.G	2.g	4.dd
.	.	4dd
.	.	8cc
=2	=2	=2
8B	8g	4.cc
8A	8f#	.
8A	8f#	.
4.B	4g	4.b
.	8f#	.
=3	=3	=3
4.d	4.e	8b
.	.	8a
.	.	8a
4d	4.d	4b
8c	.	8a
=4	=4	=4
8B	8e	4.a
8A	8d	.
8A	8e	.
4B	4f#	4b
8r	8r	8r
=5	=5	=5
4.c	4.c	4.g
4B	8d	8f#
.	8e	8a
8A	8e	8a
=6	=6	=6
2.A	16f#	16b
.	16e	16a
.	16d	8g
.	16c	.
.	8B	8f#
.	8A	4.e
.	8B	.
.	8c	.
=7	=7	=7
4.G	4.d	8e
.	.	4d
4.r	4.r	4.r
=8	=8	=8
2.B	4f#	4b
.	8f#	8b
.	4g	4cc
.	8f#	8b
=9	=9	=9
[2.d	8e	8a
.	8d	16a
.	.	16b
.	8d	16a
.	.	16f#
.	16e	4d
.	16d	.
.	8c	.
.	8B	8d
!! 9/8 meter
*M9/8	*M9/8	*M9/8
=10	=10	=10
4.d]	4.A	16e
.	.	16f#
.	.	8g
.	.	8e
4.d	8A	8f#
.	4G	4g
4.r	4.r	4.r
!! 6/8 meter
*M6/8	*M6/8	*M6/8
=11	=11	=11
4.e	4.e	4.b
4.g	4.d	4.g
=12	=12	=12
4.g	4.c	4.a
4.f#	4.B	4.b
=13	=13	=13
4.e	4.A	4.a
[4.d	[4.B	8b
.	.	8b
.	.	8a
=14	=14	=14
4.d]	4.B]	4.f#
4.c	4.c	4.g
=15	=15	=15
4.B	4.f#	4.f#
4B	4f#	4e
8A	8e	8f#
=16	=16	=16
[2.A	8e	8g
.	8d	8a
.	8d	8a
.	16e	16b
.	16d	16a
.	8c	8g
.	8B	8f#
!! 9/8 meter
*M9/8	*M9/8	*M9/8
=17	=17	=17
4A]	4.A	4.e
8G	.	.
4.G	8A	8e
.	4G	4d
4.r	4.r	4.r
!! 6/8 meter
*M6/8	*M6/8	*M6/8
=18	=18	=18
4.c	4.c	4.g
4c	4c	4g
8B	8d	8f#
=19	=19	=19
4.A	4e	4a
.	8d	8g
4.B	4.B	4.f#
=20	=20	=20
4B	4B	4f#
8A	8A	8a
4.Fn	4.c	4.cc
=21	=21	=21
[2.F	8fn	4cc
.	8e	.
.	8d	8b
.	4.c	8a
.	.	16b
.	.	16a
.	.	16g
.	.	16fn
=22	=22	=22
2.F]	16d	4.e
.	16c	.
.	16d	.
.	16e	.
.	8fn	.
.	4.d	4.fn
=23	=23	=23
4.G	4.d	4.g
4.r	4.r	4.r
=24	=24	=24
4c	4c	4g
8B	8d	8d
4A	4e	4a
8G	8d	8d
=25	=25	=25
4B	16B	8f#
.	16A	.
.	8B	8e
8A	8c	8f#
4G	4d	4g
8r	8r	8r
=26	=26	=26
4.c	4.g	4.cc
4e	4e	4b
8d	8f#	8a
=27	=27	=27
4c	8g	8g
.	8g	8g
8B	8f#	8b
4d	4d	4a
8r	8r	8r
=28	=28	=28
4.B	4.f#	4.b
4d	4d	4a
8c	8e	8g
=29	=29	=29
4B	8f#	8f#
.	8f#	8f#
8A	8e	8a
4c	4c	4g
8r	8r	8r
=30	=30	=30
4A	4e	4.a
8B	8d	.
4c	4c	4.g
8B	8B	.
=31	=31	=31
4B	4B	8f#
.	.	8e
8A	8c	16e
.	.	16f#
4G	4d	4g
8r	8r	8r
=32	=32	=32
4c	4c	4g
8B	8d	8f#
4A	4e	4g
8G	8d	8d
=33	=33	=33
4B	16c	8f#
.	16B	.
.	8A	8e
8A	8c	8f#
4G	4d	4g
8r	8r	8r
=34	=34	=34
4.c	4.c	4.g
4e	4A	4a
8d	8B	8b
=35	=35	=35
4c	8c	8g
.	8B	8f#
8B	8A	8e
4d	4G	4d
8r	8r	8r
=36	=36	=36
4.B	4.B	4.f#
4d	4G	4g
8c	8A	8a
=37	=37	=37
4B	8B	8f#
.	8A	8e
8A	8G	8d
4c	4Fn	4c
8r	8r	8r
=38	=38	=38
4A	4A	4e
8B	8B	8f#
4d	4G	4g
8B	8B	16f#
.	.	16e
=39	=39	=39
4.G	4.d	4.d
4.G	8c	4d
.	8B	.
.	8A	8e
=40	=40	=40
4.F	4.c	4.fn
4F	4c	4f
8r	8r	8r
=41	=41	=41
4A	4e	4a
8c	8c	8g
4B	4f#	8f#
.	.	8e
8G	8g	8d
=42	=42	=42
4.A	8fn	4c
.	8e	.
.	8d	8B
4F	8e	4c
.	8f	.
8G	8d	8d
=43	=43	=43
4.G	4.d	4.g
4.r	4.r	4.r
=44	=44	=44
4G	4d	4g
8A	8c	8e
4B	8B	8f#
.	8B	8g
8A	8c	8a
=45	=45	=45
4.G	4.d	4.d
4G	4d	4g
8r	8r	8r
=46	=46	=46
4A	8e	4a
.	8e	.
8B	8d	8f#
4c	4c	8g
.	.	8f#
8B	8d	8a
=47	=47	=47
4.A	4.e	4.e
4A	4e	4a
8r	8r	8r
=48	=48	=48
4B	8f#	4b
.	8f#	.
8c	8e	8g
4d	4d	8a
.	.	8g
8c	8e	8b
=49	=49	=49
4B	4f#	8f#
.	.	8g
8c	8e	8e
4.d	4.G	4.d
=50	=50	=50
4.d	4.G	4.g
4.r	4.r	4.r
=51	=51	=51
4B	8f#	4b
.	8f#	.
8c	8e	8g
4d	4d	8a
.	.	8b
8c	8c	8g
=52	=52	=52
4A	8e	8e
.	8d	8f#
8G	8c	8g
4.B	4.B	4.f#
=53	=53	=53
4.B	4.B	4.f#
4.r	4.r	4.r
=54	=54	=54
4B	8B	4b
.	8c	.
8A	8d	8a
4c	4c	4g
8B	8B	8f#
=55	=55	=55
4G	8d	8g
.	8e	8a
8F#	8f#	8b
4.A	4.e	4.a
=56	=56	=56
4.A	4.e	4.a
4.r	4.r	4.r
=57	=57	=57
4A	8A	4a
.	8B	.
8G	8c	8g
4B	8B	4f#
.	8A	.
8A	8G	8e
=58	=58	=58
4G	8d	8g
.	8e	8a
8F#	8f#	8b
4.G	4.d	4.d
=59	=59	=59
4.G	4.d	4.g
4.r	4.r	4.r
=60	=60	=60
[2.A	8e	4e
.	8d	.
.	8e	8f#
.	16e	8e
.	16d	.
.	8c	8f#
.	8B	8e
=61	=61	=61
2.A_	4A	8d
.	.	8d
.	8r	8e
.	8d	4f#
.	8c	.
.	8d	8g
=62	=62	=62
4.A]	4.e	4.e
[4.G	4.e	4.f#
=63	=63	=63
4.G]	4.d	4.g
4.r	4.r	4.r
==	==	==
*-	*-	*-
!!!ENC: David Huron
!!!YEC: Copyright 1987, David Huron
!!!EEV: 1.0
